icons/production/github.svg

<?xml version="1.0" encoding="UTF-8" standalone="no"?>
<svg width="24px" height="24px" viewBox="0 0 24 24" version="1.1" xmlns="http://www.w3.org/2000/svg">
<!--Generator: Sketch 3.8.3 (29802) - http://www.bohemiancoding.com/sketch-->
    <title>
        github
    </title>
    <desc>
        Created with Sketch.
    </desc>
    <g id="Page-1" stroke="none" stroke-width="1" fill="none" fill-rule="evenodd">
        <path d="M13.9002897,16.653278 C14.2997376,16.5499597 14.6991856,16.5499597 15.0986336,16.4466414 C16.2969774,16.1366865 17.2955973,15.5167767 17.7949073,14.3802754 C18.3940792,13.1404558 18.4939412,11.9006363 18.1943553,10.5574984 C18.0944933,9.93758857 17.7949073,9.52431537 17.3954593,9.00772387 C17.2955973,8.90440557 17.2955973,8.80108727 17.2955973,8.69776898 C17.4953213,7.87122258 17.4953213,7.14799449 17.1957354,6.32144809 C17.1957354,6.21812979 17.0958734,6.11481149 16.8961494,6.11481149 C16.3968394,6.11481149 15.9973915,6.32144809 15.5979435,6.52808469 C15.1984955,6.73472129 14.8989096,6.94135789 14.5993236,7.14799449 C14.4994616,7.25131279 14.3995996,7.25131279 14.2997376,7.25131279 C12.7019458,6.83803959 11.2040159,6.83803959 9.60622408,7.25131279 C9.50636209,7.25131279 9.4065001,7.25131279 9.30663811,7.14799449 C8.60760417,6.73472129 8.00843223,6.32144809 7.2095363,6.21812979 C6.71022635,6.11481149 6.71022635,6.11481149 6.61036436,6.63140299 C6.41064038,7.35463109 6.41064038,8.07785918 6.61036436,8.80108727 L6.61036436,9.00772387 C5.71160645,10.0409069 5.51188247,11.3840448 5.71160645,12.6238643 C5.81146844,13.0371375 5.81146844,13.3470924 5.91133043,13.7603656 C6.41064038,15.2068218 7.40926029,16.0333682 8.90719014,16.4466414 C9.30663811,16.5499597 9.70608607,16.653278 10.205396,16.7565963 C9.90581005,17.0665512 9.70608607,17.5831427 9.60622408,17.9964159 C9.60622408,18.0997342 9.50636209,18.0997342 9.50636209,18.0997342 C8.50774218,18.5130074 7.40926029,18.4096891 6.71022635,17.2731878 C6.41064038,16.7565963 6.01119242,16.3433231 5.31215849,16.2400048 L4.81284853,16.2400048 C4.61312455,16.2400048 4.61312455,16.4466414 4.71298654,16.5499597 C4.81284853,16.653278 4.91271052,16.7565963 4.91271052,16.7565963 C5.41202048,17.0665512 5.81146844,17.5831427 6.01119242,18.2030525 C6.41064038,19.1329172 7.10967431,19.5461904 8.10829422,19.6495087 C8.50774218,19.6495087 9.00705213,19.6495087 9.50636209,19.5461904 L9.50636209,21.5092381 C9.50636209,21.819193 9.20677611,22.0258296 8.80732815,21.9225113 C8.00843223,21.6125564 7.2095363,21.1992832 6.41064038,20.6826917 C3.41478067,18.5130074 1.81698882,15.5167767 2.0167128,11.6939997 C2.21643678,6.94135789 5.61174446,3.11858082 10.105534,2.18871612 C15.2983575,1.15553313 20.2914571,4.46171871 21.6895249,9.73095197 C22.9877308,14.8968669 20.0917331,20.2694185 15.2983575,21.9225113 C14.7990476,22.1291479 14.4994616,21.9225113 14.4994616,21.3026015 L14.4994616,18.8229623 C14.5993236,17.9964159 14.4994616,17.2731878 13.9002897,16.653278 L13.9002897,16.653278 Z" id="github" fill="#000"/>
    </g>
</svg>

<svg xmlns="http://www.w3.org/2000/svg" viewBox="0 0 24 24">
    <path fill-rule="evenodd" d="M13.9 16.653c.4-.103.8-.103 1.199-.206 1.198-.31 2.197-.93 2.696-2.067.6-1.24.699-2.48.4-3.823-.1-.62-.4-1.033-.8-1.55-.1-.103-.1-.206-.1-.31.2-.826.2-1.549-.1-2.376 0-.103-.1-.206-.299-.206-.5 0-.899.206-1.298.413-.4.207-.7.413-.999.62-.1.103-.2.103-.3.103a9.039 9.039 0 0 0-4.693 0c-.1 0-.2 0-.3-.103-.698-.413-1.298-.827-2.096-.93-.5-.103-.5-.103-.6.413a4 4 0 0 0 0 2.17v.207c-.898 1.033-1.098 2.376-.898 3.616.1.413.1.723.2 1.136.499 1.447 1.497 2.273 2.995 2.687.4.103.8.206 1.298.31-.3.31-.499.826-.599 1.24 0 .103-.1.103-.1.103-.998.413-2.097.31-2.796-.827-.3-.516-.699-.93-1.398-1.033h-.5c-.199 0-.199.207-.099.31l.2.207c.499.31.898.826 1.098 1.446.4.93 1.099 1.343 2.097 1.447.4 0 .9 0 1.398-.104v1.963c0 .31-.3.517-.699.414a13.25 13.25 0 0 1-2.396-1.24c-2.996-2.17-4.594-5.166-4.394-8.989.2-4.753 3.595-8.575 8.089-9.505C15.298 1.156 20.29 4.462 21.69 9.73c1.298 5.166-1.598 10.538-6.392 12.192-.499.206-.799 0-.799-.62v-2.48c.1-.827 0-1.55-.599-2.17z"/>
</svg>
